src/components/Header/icons/folder.svg

<svg xmlns="http://www.w3.org/2000/svg" viewBox="0 0 24 24"><path d="M22 4h-8l-2-2H6a2 2 0 0 0-2 2v12a2 2 0 0 0 2 2h16a2 2 0 0 0 2-2V6a2 2 0 0 0-2-2M2 6H0v14a2 2 0 0 0 2 2h18v-2H2V6Z" fill="#90A4AE"/></svg>

<svg xmlns="http://www.w3.org/2000/svg" viewBox="0 0 24 24"><path d="M22,4H14L12,2H6A2,2 0 0,0 4,4V16A2,2 0 0,0 6,18H22A2,2 0 0,0 24,16V6A2,2 0 0,0 22,4M2,6H0V11H0V20A2,2 0 0,0 2,22H20V20H2V6Z" fill='#90A4AE'/></svg>
